X: 3
T: Louden's Bonnie Banks and Braes    [D]
T: Lord Moira
B: trad. pipe strathspey, "Ceol na fidhle" and pipe collns.
B: James Kerr "Merry Melodies" v.3 p.19 #161
S: BSFC Tune Book p.55 #1 arr. B.McOwen
B: BSFC Session Tune Book 2016 p.55
Z: 2017 John Chambers <jc:trillian.mit.edu>
M: 4/4
L: 1/8
K: D
"A"[|] A |\
"D"d2 d2 f<a a2 | "G"g>e f>d "A"e>d c<A |\
"D"d2 d2 f<a a2 | "G"B{c}d "A"c<A "D"d2 d :|
"B"|: A |\
"D"d>e f>d "A"e>d c<A | "G"B>c d>c "A"B<c A>B |\
"D"d>e f>d "A"e>d c<A | "G"B{c}d "A"c<A "D"d2 d :|


